X:1
T:Canon in D Maj
T:Canon in D Maj
T:John Pachelbel
T:Drop D Tuning (EBGDAD)
C:John Pachelbel
%%score { ( 1 2 ) | ( 3 4 ) }
L:1/8
M:4/4
K:C
V:1 treble-8 nm="Guitar" snm="Guit."
V:2 treble-8 
V:3 tab stafflines=6 strings=D2,A2,D3,G3,B3,E4 nostems 
V:4 tab stafflines=6 strings=D2,A2,D3,G3,B3,E4 nostems 
V:1
 D4 A,4 | B,4 ^F,4 | G,4 D,4 | G,4 A,4 | D,4 A,4 | B,4 ^F,4 | G,4 D,4 | G,4 A,4 | D,4 A,4 | %9
 B,4 ^F,4 | G,4 D,4 | G,4 A,4 | D4 A,4 | B,4 ^F,4 | G,4 D,4 | G,2 G,2 A,4 | D,4 A,4 | B,4 ^F,4 | %18
 G,4 D,4 | G,4 A,4 | D,4 A,4 | B,4 ^F,4 | G,4 D,4 | G,4 A,4 | D,4 A,4 | B,4 ^F,4 | G,4 D,4 | %27
 G,4 A,4 | D,4 A,4 | B,4 ^F,4 | G,4 D,4 | G,4 A,4 | D,4 A,4 | B,4 ^F,4 | G,4 D,4 | G,4 A,4 | %36
 D,4 A,4 | B,4 ^F,4 | G,4 D,4 | G,4 A,4 | D,4 A,4 | B,4 ^F,4 | G,4 D,4 | G,4 A,4 | D,4 A,4 | %45
 B,4 ^F,4 | G,4 D,4 | G,4 A,4 | A,4 A,4 | B,4 ^F,4 | G,4 D,4 | G,4 A,4 | D,4 A,4 | B,4 ^F4 | %54
 G,4 D,4 | G,4 A,4 | D,4 A,4 | B,4 ^F,4 | G,4 D,4 | G,4 A,4 | [D,A,^FAd]8 |] %61
V:2
 x Ad^f x EA^c | x ^FBd x FA^c | x DGB x ^FAd | x GBd x EA^c | ^fDAd eA^cE | d^FBF ^cFAF | %6
 BDGD AD^FD | BDGB ^cEAc | [d^f]AdD [^ce]AcE | [Bd]^FBB, [A^c]FAF | [GB]DGD [^FA]DFD | %11
 [GB]DGB [A^c]EAc | dA[d^f]A aE[Ag]^c | ^f^F[Bd]F fF [Ae]2 | dD[GB]D d^F[DA]F | dGBG dE[A^c]E | %16
 d^cdD x AE^F | Dd^cB c^fab | g^feg fed^c | BAG^F EGFE | DE^FG AEAG | ^FBAG AGFE | G^FEG FEDF | %23
 G^FEB ABAG | x D[A^f]d [^ce]AcG | d^FBF ^fFAE | bDBG aD^fe | bDBG ae^cA | %28
 a^f/g/ af/g/ a/A/B/^c/ d/e/f/g/ | ^fd/e/ f^F/G/ A/B/A/G/ A/F/G/A/ | %30
 GB/A/ G^F/E/ F/E/D/E/ F/G/A/B/ | GB/A/ B^c/d/ A/B/c/d/ e/^f/g/a/ | %32
 ^fd/e/ fe/d/ e/^c/d/e/ f/e/d/c/ | dB/^c/ dD/E/ ^F/G/F/E/ F/d/c/d/ | %34
 Bd/^c/ BA/G/ A/G/^F/G/ A/B/c/d/ | Bd/^c/ dc/B/ c/d/e/d/ c/d/B/c/ | [Ad^f]d/e/ fd [A^ce]c/d/ ec | %37
 [^FBd]B/^c/ dB [FAc]A/G/ FE | [DGB]G/^F/ EG [DFA]D/E/ FD | [DGB]B/A/ G^F EA/G/ FE | %40
 ^Fd/^c/ dF AA/B/ cA | ^Fd/e/ ^fd ff/e/ d^c | BB/A/ B^c d^f/e/ df | gd/^c/ BB AEA[EAc] | %44
 [Ad^f]DAf [EA^cf]gfe | [^FBd]FBd [Ad]ed^c | [DGB]GBe [d^f]A[de]A | [DGd]cBc [EA]EA^c | %48
 x G^f[fa] [fa][gb][fa][eg] | [Bd^f]^FB[df] [Fdf][eg][df][^ce] | dcBc A^FAD | [DGd]cBc [A^c]EAc | %52
 x d^fa abag | ^fdd'f af^c'f | bDdB aDd^f | bDBG [A^cea]aec | [Ad^f]DAd x A^cA | %57
 [^FBd]FBF x A,[Ac]D | [DGB]DGd A^FdA | [GBe]BGD [EAd]^c/d/ c/d/c/d/ | x8 |] %61
V:3
 !4!D,4 !5!A,,4 | !5!B,,4 !6!^F,,4 | !6!G,,4 !6!D,,4 | !6!G,,4 !5!A,,4 | !6!D,,4 !5!A,,4 | %5
 !5!B,,4 !6!^F,,4 | !6!G,,4 !6!D,,4 | !6!G,,4 !5!A,,4 | !6!D,,4 !5!A,,4 | !5!B,,4 !6!^F,,4 | %10
 !6!G,,4 !6!D,,4 | !6!G,,4 !5!A,,4 | !4!D,4 !5!A,,4 | !5!B,,4 !6!^F,,4 | !6!G,,4 !6!D,,4 | %15
 !6!G,,2 !6!G,,2 !5!A,,4 | !6!D,,4 !5!A,,4 | !5!B,,4 !6!^F,,4 | !6!G,,4 !6!D,,4 | !6!G,,4 !5!A,,4 | %20
 !6!D,,4 !5!A,,4 | !5!B,,4 !6!^F,,4 | !6!G,,4 !6!D,,4 | !6!G,,4 !5!A,,4 | !6!D,,4 !5!A,,4 | %25
 !5!B,,4 !6!^F,,4 | !6!G,,4 !6!D,,4 | !6!G,,4 !5!A,,4 | !6!D,,4 !5!A,,4 | !5!B,,4 !6!^F,,4 | %30
 !6!G,,4 !6!D,,4 | !6!G,,4 !5!A,,4 | !6!D,,4 !5!A,,4 | !5!B,,4 !6!^F,,4 | !6!G,,4 !6!D,,4 | %35
 !6!G,,4 !5!A,,4 | !6!D,,4 !5!A,,4 | !5!B,,4 !6!^F,,4 | !6!G,,4 !6!D,,4 | !6!G,,4 !5!A,,4 | %40
 !6!D,,4 !5!A,,4 | !5!B,,4 !6!^F,,4 | !6!G,,4 !6!D,,4 | !6!G,,4 !5!A,,4 | !6!D,,4 !5!A,,4 | %45
 !5!B,,4 !6!^F,,4 | !6!G,,4 !6!D,,4 | !6!G,,4 !5!A,,4 | !5!A,,4 !5!A,,4 | !5!B,,4 !6!^F,,4 | %50
 !6!G,,4 !6!D,,4 | !6!G,,4 !5!A,,4 | !6!D,,4 !6!A,,4 | !6!B,,4 !5!^F,4 | !6!G,,4 !6!D,,4 | %55
 !6!G,,4 !5!A,,4 | !6!D,,4 !5!A,,4 | !5!B,,4 !6!^F,,4 | !6!G,,4 !6!D,,4 | !6!G,,4 !5!A,,4 | %60
 [!6!D,,!5!A,,!4!^F,!3!A,!2!D]8 |] %61
V:4
 x !3!A, !2!D !1!^F x !4!E, !3!A, !2!^C | x !4!^F, !3!B, !2!D x !4!F, !3!A, !2!^C | %2
 x !4!D, !3!G, !2!B, x !4!^F, !3!A, !2!D | x !4!G, !3!B, !2!D x !4!E, !3!A, !2!^C | %4
 !1!^F !4!D, !3!A, !2!D !1!E !3!A, !2!^C !4!E, | !2!D !4!^F, !3!B, !4!F, !2!^C !4!F, !3!A, !4!F, | %6
 !2!B, !4!D, !3!G, !4!D, !3!A, !5!D, !4!^F, !5!D, | %7
 !2!B, !4!D, !3!G, !2!B, !2!^C !4!E, !3!A, !2!C | %8
 [!2!D!1!^F] !3!A, !2!D !4!D, [!2!^C!1!E] !3!A, !2!C !4!E, | %9
 [!3!B,!2!D] !4!^F, !3!B, !5!B,, [!3!A,!2!^C] !4!F, !3!A, !4!F, | %10
 [!3!G,!2!B,] !4!D, !3!G, !4!D, [!4!^F,!3!A,] !5!D, !4!F, !5!D, | %11
 [!3!G,!2!B,] !4!D, !3!G, !2!B, [!3!A,!2!^C] !4!E, !3!A, !2!C | %12
 !2!D !3!A, [!2!D!1!^F] !3!A, !1!A !4!E, [!3!A,!1!G] !2!^C | %13
 !1!^F !4!^F, [!3!B,!2!D] !4!F, !1!F !4!F, [!3!A,!2!E]2 | %14
 !2!D !4!D, [!3!G,!2!B,] !4!D, !2!D !4!^F, [!5!D,!3!A,] !4!F, | %15
 !2!D !4!G, !3!B, !4!G, !2!D !4!E, [!3!A,!2!^C] !4!E, | %16
 !2!D !2!^C !2!D !4!D, x !3!A, !4!E, !4!^F, | !4!D, !2!D !2!^C !2!B, !3!C !2!^F !1!A !1!B | %18
 !2!G !2!^F !2!E !2!G !2!F !1!E !2!D !2!^C | !2!B, !3!A, !3!G, !4!^F, !4!E, !3!G, !4!F, !4!E, | %20
 !4!D, !4!E, !4!^F, !3!G, !3!A, !4!E, !3!A, !3!G, | %21
 !4!^F, !3!B, !3!A, !4!G, !3!A, !4!G, !4!F, !4!E, | %22
 !3!G, !4!^F, !4!E, !3!G, !4!F, !4!E, !4!D, !4!F, | %23
 !3!G, !4!^F, !4!E, !2!B, !3!A, !3!B, !3!A, !3!G, | %24
 x !4!D, [!3!A,!1!^F] !2!D [!2!^C!1!E] !3!A, !2!C !3!G, | %25
 !2!D !4!^F, !3!B, !4!F, !1!^F !4!F, !3!A, !4!E, | !1!B !4!D, !2!B, !3!G, !1!A !4!D, !2!^F !2!E | %27
 !1!B !4!D, !2!B, !3!G, !1!A !2!E !3!^C !4!A, | %28
 !1!A !1!^F/ !1!G/ !1!A !1!F/ !1!G/ !1!A/ !3!A,/ !2!B,/ !2!^C/ !2!D/ !1!E/ !1!F/ !1!G/ | %29
 !1!^F !2!D/ !2!E/ !1!F !4!^F,/ !3!G,/ !3!A,/ !2!B,/ !3!A,/ !3!G,/ !3!A,/ !4!F,/ !3!G,/ !3!A,/ | %30
 !3!G, !2!B,/ !3!A,/ !3!G, !4!^F,/ !4!E,/ !4!F,/ !4!E,/ !4!D,/ !4!E,/ !4!F,/ !3!G,/ !3!A,/ !2!B,/ | %31
 !3!G, !2!B,/ !3!A,/ !2!B, !2!^C/ !2!D/ !3!A,/ !2!B,/ !2!C/ !2!D/ !2!E/ !1!^F/ !1!G/ !1!A/ | %32
 !1!^F !2!D/ !1!E/ !1!F !1!E/ !2!D/ !1!E/ !2!^C/ !2!D/ !1!E/ !1!F/ !1!E/ !2!D/ !2!C/ | %33
 !2!D !3!B,/ !2!^C/ !2!D !4!D,/ !4!E,/ !4!^F,/ !3!G,/ !4!F,/ !4!E,/ !4!F,/ !2!D/ !2!C/ !2!D/ | %34
 !3!B, !2!D/ !3!^C/ !2!B, !3!A,/ !3!G,/ !3!A,/ !3!G,/ !4!^F,/ !3!G,/ !3!A,/ !2!B,/ !2!C/ !2!D/ | %35
 !3!B, !2!D/ !3!^C/ !2!D !3!C/ !2!B,/ !2!C/ !2!D/ !2!E/ !2!D/ !2!C/ !2!D/ !2!B,/ !2!C/ | %36
 [!3!A,!2!D!1!^F] !2!D/ !1!E/ !1!F !2!D [!3!A,!2!^C!1!E] !2!C/ !2!D/ !1!E !2!C | %37
 [!4!^F,!3!B,!2!D] !3!B,/ !2!^C/ !2!D !3!B, [!4!F,!3!A,!2!C] !3!A,/ !4!G,/ !4!F, !4!E, | %38
 [!4!D,!3!G,!2!B,] !3!G,/ !4!^F,/ !4!E, !3!G, [!5!D,!4!F,!3!A,] !5!D,/ !4!E,/ !4!F, !5!D, | %39
 [!4!D,!3!G,!2!B,] !2!B,/ !3!A,/ !3!G, !4!^F, !4!E, !3!A,/ !4!G,/ !4!F, !4!E, | %40
 !4!^F, !2!D/ !2!^C/ !2!D !4!F, !3!A, !3!A,/ !2!B,/ !2!C !3!A, | %41
 !4!^F, !2!D/ !2!E/ !1!^F !2!D !1!F !1!F/ !2!E/ !2!D !2!^C | %42
 !2!B, !2!B,/ !3!A,/ !2!B, !2!^C !2!D !1!^F/ !1!E/ !2!D !1!F | %43
 !1!G !2!D/ !3!^C/ !3!B, !3!B, !3!A, !4!E, !3!A, [!4!E,!3!A,!2!C] | %44
 [!3!A,!2!D!1!^F] !4!D, !3!A, !1!F [!4!E,!3!A,!2!^C!1!F] !1!G !1!F !2!E | %45
 [!4!^F,!3!B,!2!D] !4!F, !3!B, !2!D [!3!A,!2!D] !2!E !2!D !2!^C | %46
 [!4!D,!3!G,!2!B,] !3!G, !2!B, !1!E [!2!D!1!^F] !3!A, [!2!D!1!E] !3!A, | %47
 [!4!D,!3!G,!2!D] !3!C !3!B, !3!C [!4!E,!3!A,] !4!E, !3!A, !2!^C | %48
 x !3!G, !2!^F [!2!F!1!A] [!2!F!1!A] [!2!G!1!B] [!2!F!1!A] [!2!E!1!G] | %49
 [!3!B,!2!D!1!^F] !4!^F, !3!B, [!2!D!1!F] [!4!F,!2!D!1!F] [!2!E!1!G] [!2!D!1!F] [!2!^C!1!E] | %50
 !2!D !3!C !3!B, !3!C !3!A, !4!^F, !3!A, !4!D, | %51
 [!4!D,!3!G,!2!D] !3!C !3!B, !3!C [!3!A,!2!^C] !4!E, !3!A, !2!C | %52
 x !3!D !2!^F !2!A !2!A !1!B !2!A !2!G | !2!^F !3!D !1!d !2!F !2!A !2!F !1!^c !2!F | %54
 !1!B !4!D, !3!D !2!B, !1!A !4!D, !3!D !2!^F | %55
 !1!B !4!D, !2!B, !3!G, [!4!A,!3!^C!2!E!1!A] !1!A !2!E !3!C | %56
 [!3!A,!2!D!1!^F] !4!D, !3!A, !2!D x !3!A, !2!^C !3!A, | %57
 [!4!^F,!3!B,!2!D] !4!F, !3!B, !4!F, x !5!A,, [!3!A,!2!C] !4!D, | %58
 [!4!D,!3!G,!2!B,] !4!D, !3!G, !2!D !3!A, !4!^F, !2!D !3!A, | %59
 [!3!G,!2!B,!1!E] !2!B, !3!G, !4!D, [!4!E,!3!A,!2!D] !2!^C/ !2!D/ !2!C/ !2!D/ !2!C/ !2!D/ | x8 |] %61

